Simply-Black-Circles/scalable/apps/yubioath.svg

<svg xmlns="http://www.w3.org/2000/svg" width="48" height="48" viewBox="0 0 12.7 12.7"><path d="M6.34.07a6.29 6.29 0 0 0-6.29 6.3 6.29 6.29 0 0 0 6.3 6.28 6.29 6.29 0 0 0 6.28-6.29A6.29 6.29 0 0 0 6.34.07zM6.32 1l.01.01a5.4 5.4 0 0 1 5.4 5.4 5.4 5.4 0 0 1-5.4 5.41 5.4 5.4 0 0 1-5.41-5.4A5.4 5.4 0 0 1 6.32 1zm.96 6.28A1.32 1.32 0 0 0 5.96 8.6a1.32 1.32 0 0 0 1.32 1.32 1.32 1.32 0 0 0 1.3-1.05h.82v.53h.52v-.53h.27v-.53H8.57a1.32 1.32 0 0 0-1.3-1.06zm0 .53a.8.8 0 0 1 .8.8.8.8 0 0 1-.8.79.8.8 0 0 1-.8-.8.8.8 0 0 1 .8-.8z" fill="#1a1a1a"/><g stroke="#1a1a1a" fill="none" stroke-width="4" stroke-linecap="round" stroke-linejoin="round"><path d="M3.57 8.34l3.7-5.03M3.05 3.31l2.11 2.38" stroke-width="1.05832"/></g></svg>

<?xml version="1.0" encoding="UTF-8" standalone="no"?>
<svg
   xmlns:dc="http://purl.org/dc/elements/1.1/"
   xmlns:cc="http://creativecommons.org/ns#"
   xmlns:rdf="http://www.w3.org/1999/02/22-rdf-syntax-ns#"
   xmlns:svg="http://www.w3.org/2000/svg"
   xmlns="http://www.w3.org/2000/svg"
   xmlns:sodipodi="http://sodipodi.sourceforge.net/DTD/sodipodi-0.dtd"
   xmlns:inkscape="http://www.inkscape.org/namespaces/inkscape"
   width="48"
   height="48"
   viewBox="0 0 12.7 12.7"
   version="1.1"
   id="svg8"
   sodipodi:docname="yubioath.svg"
   inkscape:version="0.92.4 (5da689c313, 2019-01-14)">
  <metadata
     id="metadata14">
    <rdf:RDF>
      <cc:Work
         rdf:about="">
        <dc:format>image/svg+xml</dc:format>
        <dc:type
           rdf:resource="http://purl.org/dc/dcmitype/StillImage" />
        <dc:title></dc:title>
      </cc:Work>
    </rdf:RDF>
  </metadata>
  <defs
     id="defs12" />
  <sodipodi:namedview
     pagecolor="#ffffff"
     bordercolor="#666666"
     borderopacity="1"
     objecttolerance="10"
     gridtolerance="10"
     guidetolerance="10"
     inkscape:pageopacity="0"
     inkscape:pageshadow="2"
     inkscape:window-width="1087"
     inkscape:window-height="480"
     id="namedview10"
     showgrid="false"
     inkscape:zoom="4.9166667"
     inkscape:cx="2.1355932"
     inkscape:cy="24"
     inkscape:window-x="0"
     inkscape:window-y="25"
     inkscape:window-maximized="0"
     inkscape:current-layer="svg8" />
  <path
     d="M 6.34,0.07 A 6.29,6.29 0 0 0 0.05,6.37 6.29,6.29 0 0 0 6.35,12.65 6.29,6.29 0 0 0 12.63,6.36 6.29,6.29 0 0 0 6.34,0.07 Z M 6.32,1 6.33,1.01 a 5.4,5.4 0 0 1 5.4,5.4 5.4,5.4 0 0 1 -5.4,5.41 A 5.4,5.4 0 0 1 0.92,6.42 5.4,5.4 0 0 1 6.32,1 Z M 7.28,7.28 A 1.32,1.32 0 0 0 5.96,8.6 1.32,1.32 0 0 0 7.28,9.92 1.32,1.32 0 0 0 8.58,8.87 H 9.4 V 9.4 H 9.92 V 8.87 h 0.27 V 8.34 H 8.57 A 1.32,1.32 0 0 0 7.27,7.28 Z m 0,0.53 a 0.8,0.8 0 0 1 0.8,0.8 0.8,0.8 0 0 1 -0.8,0.79 0.8,0.8 0 0 1 -0.8,-0.8 0.8,0.8 0 0 1 0.8,-0.8 z"
     id="path2"
     inkscape:connector-curvature="0"
     style="fill:#1a1a1a" />
  <g
     id="g6"
     style="fill:none;stroke:#1a1a1a;stroke-width:4;stroke-linecap:round;stroke-linejoin:round">
    <path
       d="m 3.57,8.34 3.7,-5.03 m -4.22,0 2.11,2.38"
       id="path4"
       inkscape:connector-curvature="0"
       style="stroke-width:1.05832005" />
  </g>
</svg>
